X:21
T:The Fishin Hole
C:Theme for the Andy Griffin Show
N:TablEdited by Gregory J Thomas
L:1/8
Q:1/4=185
M:4/4
K:D
z4 zA B2 | "D6"d4 "Cdim7"a3g | "G6/B"f2 d2 "Bbdim7"a3g | "D6/A"f2 d2 "Ebdim7"B2 d2 | 
"Em7"f2 de "A7"zA B2 | "D6"d4 "Cdim7"a3g | "G6/B"f2 d2 "Bbdim7"a3g | "D/A"f2 d2 "E7"^g2 e2 | 
"A7"a4 zA B2 | "D6"d4 "Cdim7"a3g | "G6/B"f2 d2 "Bbdim7"a3g | "D6/A"f2 d2 "Ebdim7"B2 d2 | 
"Em7"f2 de "A7"zA B2 | "D6"d4 "Cdim7"a3g | "G6/B"f2 d2 "Bbdim7"a3g | "D/A"f2 d2 "A7"e2 c2 | 
"D6"d8 | "G6"z2 b3a b2 | "D6"a8 | "G6"z2 b3a b2 | "D6"a8 | "G6"z2 b3a b2 | "D6"a7/1a | 
"F9"^g2 e2 "E9"f2 g2 | "Em7"a4 "A7"zA B2 | "D6"d4 "Cdim7"a3g | "G6/B"f2 d2 "Bbdim7"a3g | 
"D6/A"f2 d2 "Ebdim7"B2 d2 | "Em7"f2 de "A7"zA B2 | "D6"d4 "Cdim7"a3g | "G6/B"f2 d2 "Bbdim7"a3g | 
"D/A"f2 d2 "A7"e2 c2 | "D6"d8 | z8 | 


